static/name1.svg

<svg fill="none" height="109" viewBox="0 0 738 109" width="738" xmlns="http://www.w3.org/2000/svg"><g stroke="#fff" stroke-width="2"><path d="m78.04 94.6c-8.16 8.16-17.664 12.24-28.512 12.24-6.72 0-13.056-1.344-19.008-4.032-5.856-2.688-10.992-6.384-15.408-11.088-4.32-4.704-7.776-10.224-10.368-16.56-2.496-6.432-3.744-13.344-3.744-20.736 0-7.008 1.248-13.584 3.744-19.728 2.592-6.24 6.096-11.664 10.512-16.272 4.512-4.704 9.792-8.4 15.84-11.08801 6.048-2.78399 12.624-4.17599 19.728-4.17599 9.6 0 17.808 2.016 24.624 6.048 6.912 4.032 12.096 9.456 15.552 16.272l-14.832 10.944c-2.592-5.088-6.24-8.976-10.944-11.664-4.608-2.688-9.648-4.032-15.12-4.032-4.32 0-8.304.912-11.952 2.736-3.552 1.824-6.624 4.32-9.216 7.488-2.496 3.168-4.464 6.816-5.904 10.944-1.344 4.128-2.016 8.496-2.016 13.104 0 4.8.768 9.312 2.304 13.536 1.536 4.128 3.648 7.728 6.336 10.8s5.856 5.52 9.504 7.344c3.744 1.728 7.776 2.592 12.096 2.592 9.888 0 18.816-4.656 26.784-13.968v-7.2h-20.592v-14.544h37.008v52.56h-16.416z"/><path d="m144.512 107.56c-6.048 0-11.52-1.008-16.416-3.024-4.896-2.112-9.072-4.944-12.528-8.496s-6.144-7.68-8.064-12.384c-1.824-4.704-2.736-9.648-2.736-14.832 0-5.376.912-10.416 2.736-15.12 1.824-4.8 4.464-8.976 7.92-12.528 3.456-3.648 7.632-6.528 12.528-8.64 4.992-2.112 10.56-3.168 16.704-3.168s11.616 1.056 16.416 3.168c4.896 2.112 9.024 4.944 12.384 8.496 3.456 3.552 6.048 7.68 7.776 12.384 1.824 4.704 2.736 9.6 2.736 14.688 0 1.248-.048 2.448-.144 3.6 0 1.152-.096 2.112-.288 2.88h-58.32c.288 2.976 1.008 5.616 2.16 7.92s2.64 4.272 4.464 5.904 3.888 2.88 6.192 3.744 4.704 1.296 7.2 1.296c3.84 0 7.44-.912 10.8-2.736 3.456-1.92 5.808-4.416 7.056-7.488l16.56 4.608c-2.784 5.76-7.248 10.512-13.392 14.256-6.048 3.648-13.296 5.472-21.744 5.472zm19.584-45.504c-.48-5.664-2.592-10.176-6.336-13.536-3.648-3.456-8.112-5.184-13.392-5.184-2.592 0-5.04.48-7.344 1.44-2.208.864-4.176 2.112-5.904 3.744s-3.168 3.6-4.32 5.904c-1.056 2.304-1.68 4.848-1.872 7.632z"/><path d="m230.715 107.56c-6.048 0-11.52-1.008-16.416-3.024-4.896-2.112-9.072-4.944-12.528-8.496s-6.144-7.68-8.064-12.384c-1.824-4.704-2.736-9.648-2.736-14.832 0-5.376.912-10.416 2.736-15.12 1.824-4.8 4.464-8.976 7.92-12.528 3.456-3.648 7.632-6.528 12.528-8.64 4.992-2.112 10.56-3.168 16.704-3.168s11.616 1.056 16.416 3.168c4.896 2.112 9.024 4.944 12.384 8.496 3.456 3.552 6.048 7.68 7.776 12.384 1.824 4.704 2.736 9.6 2.736 14.688 0 1.248-.048 2.448-.144 3.6 0 1.152-.096 2.112-.288 2.88h-58.32c.288 2.976 1.008 5.616 2.16 7.92s2.64 4.272 4.464 5.904 3.888 2.88 6.192 3.744 4.704 1.296 7.2 1.296c3.84 0 7.44-.912 10.8-2.736 3.456-1.92 5.808-4.416 7.056-7.488l16.56 4.608c-2.784 5.76-7.248 10.512-13.392 14.256-6.048 3.648-13.296 5.472-21.744 5.472zm19.584-45.504c-.48-5.664-2.592-10.176-6.336-13.536-3.648-3.456-8.112-5.184-13.392-5.184-2.592 0-5.04.48-7.344 1.44-2.208.864-4.176 2.112-5.904 3.744s-3.168 3.6-4.32 5.904c-1.056 2.304-1.68 4.848-1.872 7.632z"/><path d="m333.478 106.12-21.888-32.688-10.368 10.224v22.464h-19.296v-105.12h19.296v63.792l30.24-33.984h20.592l-28.08 31.968 30.096 43.344z"/><path d="m425.007 30.664c-.672-.672-1.92-1.584-3.744-2.736-1.728-1.152-3.888-2.256-6.48-3.312-2.496-1.152-5.232-2.112-8.208-2.88s-6-1.152-9.072-1.152c-5.472 0-9.552 1.008-12.24 3.024s-4.032 4.848-4.032 8.496c0 2.112.48 3.888 1.44 5.328 1.056 1.344 2.544 2.544 4.464 3.6s4.32 2.016 7.2 2.88c2.976.864 6.384 1.776 10.224 2.736 4.992 1.344 9.504 2.784 13.536 4.32 4.128 1.536 7.584 3.456 10.368 5.76 2.88 2.304 5.088 5.088 6.624 8.352 1.536 3.168 2.304 7.104 2.304 11.808 0 5.472-1.056 10.176-3.168 14.112-2.016 3.84-4.8 6.96-8.352 9.36-3.456 2.4-7.488 4.176-12.096 5.328-4.512 1.056-9.264 1.584-14.256 1.584-7.68 0-15.264-1.152-22.752-3.456s-14.208-5.568-20.16-9.792l8.784-17.136c.864.864 2.4 2.016 4.608 3.456 2.304 1.344 4.992 2.736 8.064 4.176 3.072 1.344 6.48 2.496 10.224 3.456s7.584 1.44 11.52 1.44c10.944 0 16.416-3.504 16.416-10.512 0-2.208-.624-4.08-1.872-5.616s-3.024-2.88-5.328-4.032-5.088-2.208-8.352-3.168-6.912-2.016-10.944-3.168c-4.896-1.344-9.168-2.784-12.816-4.32-3.552-1.632-6.528-3.504-8.928-5.616-2.4-2.208-4.224-4.704-5.472-7.488-1.152-2.88-1.728-6.288-1.728-10.224 0-5.184.96-9.792 2.88-13.824s4.56-7.392 7.92-10.08c3.456-2.688 7.44-4.704 11.952-6.048 4.512-1.44 9.36-2.16 14.544-2.16 7.2 0 13.824 1.152 19.872 3.456 6.048 2.208 11.328 4.848 15.84 7.92z"/><path d="m471.127 107.56c-3.648 0-7.056-.576-10.224-1.728-3.168-1.248-5.904-2.928-8.208-5.04-2.304-2.208-4.128-4.752-5.472-7.632-1.248-2.88-1.872-6.048-1.872-9.504 0-3.552.768-6.816 2.304-9.792 1.632-3.072 3.84-5.664 6.624-7.776 2.88-2.112 6.288-3.744 10.224-4.896 3.936-1.248 8.256-1.872 12.96-1.872 3.36 0 6.624.288 9.792.864 3.264.576 6.144 1.392 8.64 2.448v-4.32c0-4.992-1.44-8.832-4.32-11.52-2.784-2.688-6.96-4.032-12.528-4.032-4.032 0-7.968.72-11.808 2.16s-7.776 3.552-11.808 6.336l-5.904-12.24c9.696-6.432 20.16-9.648 31.392-9.648 10.848 0 19.248 2.688 25.2 8.064 6.048 5.28 9.072 12.96 9.072 23.04v23.472c0 2.016.336 3.456 1.008 4.32.768.864 1.968 1.344 3.6 1.44v16.416c-3.264.672-6.096 1.008-8.496 1.008-3.648 0-6.48-.816-8.496-2.448-1.92-1.632-3.12-3.792-3.6-6.48l-.432-4.176c-3.36 4.416-7.44 7.776-12.24 10.08s-9.936 3.456-15.408 3.456zm5.472-14.112c3.264 0 6.336-.576 9.216-1.728 2.976-1.152 5.28-2.688 6.912-4.608 2.112-1.632 3.168-3.456 3.168-5.472v-8.64c-2.304-.864-4.8-1.536-7.488-2.016-2.688-.576-5.28-.864-7.776-.864-4.992 0-9.072 1.152-12.24 3.456-3.168 2.208-4.752 5.04-4.752 8.496 0 3.264 1.248 6 3.744 8.208 2.496 2.112 5.568 3.168 9.216 3.168z"/><path d="m533.079 1h19.296v80.928c0 2.784.672 4.944 2.016 6.48s3.264 2.304 5.76 2.304c1.152 0 2.4-.192 3.744-.576 1.44-.384 2.784-.864 4.032-1.44l2.592 14.688c-2.592 1.248-5.616 2.208-9.072 2.88s-6.576 1.008-9.36 1.008c-6.048 0-10.752-1.584-14.112-4.752-3.264-3.264-4.896-7.872-4.896-13.824z"/><path d="m613.774 107.56c-6.144 0-11.664-1.056-16.56-3.168s-9.072-4.944-12.528-8.496c-3.36-3.648-5.952-7.824-7.776-12.528s-2.736-9.648-2.736-14.832c0-5.28.912-10.272 2.736-14.976s4.416-8.832 7.776-12.384c3.456-3.648 7.632-6.528 12.528-8.64s10.416-3.168 16.56-3.168 11.616 1.056 16.416 3.168c4.896 2.112 9.024 4.992 12.384 8.64 3.456 3.552 6.096 7.68 7.92 12.384s2.736 9.696 2.736 14.976c0 5.184-.912 10.128-2.736 14.832s-4.416 8.88-7.776 12.528c-3.36 3.552-7.488 6.384-12.384 8.496s-10.416 3.168-16.56 3.168zm-19.728-39.024c0 3.36.48 6.432 1.44 9.216 1.056 2.688 2.448 5.04 4.176 7.056 1.824 2.016 3.936 3.6 6.336 4.752 2.4 1.056 4.992 1.584 7.776 1.584s5.376-.528 7.776-1.584c2.4-1.152 4.464-2.736 6.192-4.752 1.824-2.016 3.216-4.416 4.176-7.2 1.056-2.784 1.584-5.856 1.584-9.216 0-3.264-.528-6.288-1.584-9.072-.96-2.784-2.352-5.184-4.176-7.2-1.728-2.016-3.792-3.552-6.192-4.608-2.4-1.152-4.992-1.728-7.776-1.728s-5.376.576-7.776 1.728-4.512 2.736-6.336 4.752c-1.728 2.016-3.12 4.416-4.176 7.2-.96 2.784-1.44 5.808-1.44 9.072z"/><path d="m736.382 106.12h-19.296v-42.336c0-6.048-1.056-10.464-3.168-13.248s-5.04-4.176-8.784-4.176c-1.92 0-3.888.384-5.904 1.152s-3.936 1.872-5.76 3.312c-1.728 1.344-3.312 2.976-4.752 4.896s-2.496 4.032-3.168 6.336v44.064h-19.296v-75.456h17.424v13.968c2.784-4.8 6.816-8.544 12.096-11.232s11.232-4.032 17.856-4.032c4.704 0 8.544.864 11.52 2.592s5.28 3.984 6.912 6.768 2.736 5.952 3.312 9.504c.672 3.552 1.008 7.152 1.008 10.8z"/></g></svg>

<svg width="738" height="109" viewBox="0 0 738 109" fill="none" xmlns="http://www.w3.org/2000/svg">
<path d="M78.04 94.6C69.88 102.76 60.376 106.84 49.528 106.84C42.808 106.84 36.472 105.496 30.52 102.808C24.664 100.12 19.528 96.424 15.112 91.72C10.792 87.016 7.336 81.496 4.744 75.16C2.248 68.728 1 61.816 1 54.424C1 47.416 2.248 40.84 4.744 34.696C7.336 28.456 10.84 23.032 15.256 18.424C19.768 13.72 25.048 10.024 31.096 7.33599C37.144 4.552 43.72 3.16 50.824 3.16C60.424 3.16 68.632 5.176 75.448 9.208C82.36 13.24 87.544 18.664 91 25.48L76.168 36.424C73.576 31.336 69.928 27.448 65.224 24.76C60.616 22.072 55.576 20.728 50.104 20.728C45.784 20.728 41.8 21.64 38.152 23.464C34.6 25.288 31.528 27.784 28.936 30.952C26.44 34.12 24.472 37.768 23.032 41.896C21.688 46.024 21.016 50.392 21.016 55C21.016 59.8 21.784 64.312 23.32 68.536C24.856 72.664 26.968 76.264 29.656 79.336C32.344 82.408 35.512 84.856 39.16 86.68C42.904 88.408 46.936 89.272 51.256 89.272C61.144 89.272 70.072 84.616 78.04 75.304V68.104H57.448V53.56H94.456V106.12H78.04V94.6Z" stroke="white" stroke-width="2"/>
<path d="M144.512 107.56C138.464 107.56 132.992 106.552 128.096 104.536C123.2 102.424 119.024 99.592 115.568 96.04C112.112 92.488 109.424 88.36 107.504 83.656C105.68 78.952 104.768 74.008 104.768 68.824C104.768 63.448 105.68 58.408 107.504 53.704C109.328 48.904 111.968 44.728 115.424 41.176C118.88 37.528 123.056 34.648 127.952 32.536C132.944 30.424 138.512 29.368 144.656 29.368C150.8 29.368 156.272 30.424 161.072 32.536C165.968 34.648 170.096 37.48 173.456 41.032C176.912 44.584 179.504 48.712 181.232 53.416C183.056 58.12 183.968 63.016 183.968 68.104C183.968 69.352 183.92 70.552 183.824 71.704C183.824 72.856 183.728 73.816 183.536 74.584H125.216C125.504 77.56 126.224 80.2 127.376 82.504C128.528 84.808 130.016 86.776 131.84 88.408C133.664 90.04 135.728 91.288 138.032 92.152C140.336 93.016 142.736 93.448 145.232 93.448C149.072 93.448 152.672 92.536 156.032 90.712C159.488 88.792 161.84 86.296 163.088 83.224L179.648 87.832C176.864 93.592 172.4 98.344 166.256 102.088C160.208 105.736 152.96 107.56 144.512 107.56ZM164.096 62.056C163.616 56.392 161.504 51.88 157.76 48.52C154.112 45.064 149.648 43.336 144.368 43.336C141.776 43.336 139.328 43.816 137.024 44.776C134.816 45.64 132.848 46.888 131.12 48.52C129.392 50.152 127.952 52.12 126.8 54.424C125.744 56.728 125.12 59.272 124.928 62.056H164.096Z" stroke="white" stroke-width="2"/>
<path d="M230.715 107.56C224.667 107.56 219.195 106.552 214.299 104.536C209.403 102.424 205.227 99.592 201.771 96.04C198.315 92.488 195.627 88.36 193.707 83.656C191.883 78.952 190.971 74.008 190.971 68.824C190.971 63.448 191.883 58.408 193.707 53.704C195.531 48.904 198.171 44.728 201.627 41.176C205.083 37.528 209.259 34.648 214.155 32.536C219.147 30.424 224.715 29.368 230.859 29.368C237.003 29.368 242.475 30.424 247.275 32.536C252.171 34.648 256.299 37.48 259.659 41.032C263.115 44.584 265.707 48.712 267.435 53.416C269.259 58.12 270.171 63.016 270.171 68.104C270.171 69.352 270.123 70.552 270.027 71.704C270.027 72.856 269.931 73.816 269.739 74.584H211.419C211.707 77.56 212.427 80.2 213.579 82.504C214.731 84.808 216.219 86.776 218.043 88.408C219.867 90.04 221.931 91.288 224.235 92.152C226.539 93.016 228.939 93.448 231.435 93.448C235.275 93.448 238.875 92.536 242.235 90.712C245.691 88.792 248.043 86.296 249.291 83.224L265.851 87.832C263.067 93.592 258.603 98.344 252.459 102.088C246.411 105.736 239.163 107.56 230.715 107.56ZM250.299 62.056C249.819 56.392 247.707 51.88 243.963 48.52C240.315 45.064 235.851 43.336 230.571 43.336C227.979 43.336 225.531 43.816 223.227 44.776C221.019 45.64 219.051 46.888 217.323 48.52C215.595 50.152 214.155 52.12 213.003 54.424C211.947 56.728 211.323 59.272 211.131 62.056H250.299Z" stroke="white" stroke-width="2"/>
<path d="M333.478 106.12L311.59 73.432L301.222 83.656V106.12H281.926V1H301.222V64.792L331.462 30.808H352.054L323.974 62.776L354.07 106.12H333.478Z" stroke="white" stroke-width="2"/>
<path d="M425.007 30.664C424.335 29.992 423.087 29.08 421.263 27.928C419.535 26.776 417.375 25.672 414.783 24.616C412.287 23.464 409.551 22.504 406.575 21.736C403.599 20.968 400.575 20.584 397.503 20.584C392.031 20.584 387.951 21.592 385.263 23.608C382.575 25.624 381.231 28.456 381.231 32.104C381.231 34.216 381.711 35.992 382.671 37.432C383.727 38.776 385.215 39.976 387.135 41.032C389.055 42.088 391.455 43.048 394.335 43.912C397.311 44.776 400.719 45.688 404.559 46.648C409.551 47.992 414.063 49.432 418.095 50.968C422.223 52.504 425.679 54.424 428.463 56.728C431.343 59.032 433.551 61.816 435.087 65.08C436.623 68.248 437.391 72.184 437.391 76.888C437.391 82.36 436.335 87.064 434.223 91C432.207 94.84 429.423 97.96 425.871 100.36C422.415 102.76 418.383 104.536 413.775 105.688C409.263 106.744 404.511 107.272 399.519 107.272C391.839 107.272 384.255 106.12 376.767 103.816C369.279 101.512 362.559 98.248 356.607 94.024L365.391 76.888C366.255 77.752 367.791 78.904 369.999 80.344C372.303 81.688 374.991 83.08 378.063 84.52C381.135 85.864 384.543 87.016 388.287 87.976C392.031 88.936 395.871 89.416 399.807 89.416C410.751 89.416 416.223 85.912 416.223 78.904C416.223 76.696 415.599 74.824 414.351 73.288C413.103 71.752 411.327 70.408 409.023 69.256C406.719 68.104 403.935 67.048 400.671 66.088C397.407 65.128 393.759 64.072 389.727 62.92C384.831 61.576 380.559 60.136 376.911 58.6C373.359 56.968 370.383 55.096 367.983 52.984C365.583 50.776 363.759 48.28 362.511 45.496C361.359 42.616 360.783 39.208 360.783 35.272C360.783 30.088 361.743 25.48 363.663 21.448C365.583 17.416 368.223 14.056 371.583 11.368C375.039 8.68 379.023 6.664 383.535 5.32C388.047 3.88 392.895 3.16 398.079 3.16C405.279 3.16 411.903 4.312 417.951 6.616C423.999 8.824 429.279 11.464 433.791 14.536L425.007 30.664Z" stroke="white" stroke-width="2"/>
<path d="M471.127 107.56C467.479 107.56 464.071 106.984 460.903 105.832C457.735 104.584 454.999 102.904 452.695 100.792C450.391 98.584 448.567 96.04 447.223 93.16C445.975 90.28 445.351 87.112 445.351 83.656C445.351 80.104 446.119 76.84 447.655 73.864C449.287 70.792 451.495 68.2 454.279 66.088C457.159 63.976 460.567 62.344 464.503 61.192C468.439 59.944 472.759 59.32 477.463 59.32C480.823 59.32 484.087 59.608 487.255 60.184C490.519 60.76 493.399 61.576 495.895 62.632V58.312C495.895 53.32 494.455 49.48 491.575 46.792C488.791 44.104 484.615 42.76 479.047 42.76C475.015 42.76 471.079 43.48 467.239 44.92C463.399 46.36 459.463 48.472 455.431 51.256L449.527 39.016C459.223 32.584 469.687 29.368 480.919 29.368C491.767 29.368 500.167 32.056 506.119 37.432C512.167 42.712 515.191 50.392 515.191 60.472V83.944C515.191 85.96 515.527 87.4 516.199 88.264C516.967 89.128 518.167 89.608 519.799 89.704V106.12C516.535 106.792 513.703 107.128 511.303 107.128C507.655 107.128 504.823 106.312 502.807 104.68C500.887 103.048 499.687 100.888 499.207 98.2L498.775 94.024C495.415 98.44 491.335 101.8 486.535 104.104C481.735 106.408 476.599 107.56 471.127 107.56ZM476.599 93.448C479.863 93.448 482.935 92.872 485.815 91.72C488.791 90.568 491.095 89.032 492.727 87.112C494.839 85.48 495.895 83.656 495.895 81.64V73C493.591 72.136 491.095 71.464 488.407 70.984C485.719 70.408 483.127 70.12 480.631 70.12C475.639 70.12 471.559 71.272 468.391 73.576C465.223 75.784 463.639 78.616 463.639 82.072C463.639 85.336 464.887 88.072 467.383 90.28C469.879 92.392 472.951 93.448 476.599 93.448Z" stroke="white" stroke-width="2"/>
<path d="M533.079 1H552.375V81.928C552.375 84.712 553.047 86.872 554.391 88.408C555.735 89.944 557.655 90.712 560.151 90.712C561.303 90.712 562.551 90.52 563.895 90.136C565.335 89.752 566.679 89.272 567.927 88.696L570.519 103.384C567.927 104.632 564.903 105.592 561.447 106.264C557.991 106.936 554.871 107.272 552.087 107.272C546.039 107.272 541.335 105.688 537.975 102.52C534.711 99.256 533.079 94.648 533.079 88.696V1Z" stroke="white" stroke-width="2"/>
<path d="M613.774 107.56C607.63 107.56 602.11 106.504 597.214 104.392C592.318 102.28 588.142 99.448 584.686 95.896C581.326 92.248 578.734 88.072 576.91 83.368C575.086 78.664 574.174 73.72 574.174 68.536C574.174 63.256 575.086 58.264 576.91 53.56C578.734 48.856 581.326 44.728 584.686 41.176C588.142 37.528 592.318 34.648 597.214 32.536C602.11 30.424 607.63 29.368 613.774 29.368C619.918 29.368 625.39 30.424 630.19 32.536C635.086 34.648 639.214 37.528 642.574 41.176C646.03 44.728 648.67 48.856 650.494 53.56C652.318 58.264 653.23 63.256 653.23 68.536C653.23 73.72 652.318 78.664 650.494 83.368C648.67 88.072 646.078 92.248 642.718 95.896C639.358 99.448 635.23 102.28 630.334 104.392C625.438 106.504 619.918 107.56 613.774 107.56ZM594.046 68.536C594.046 71.896 594.526 74.968 595.486 77.752C596.542 80.44 597.934 82.792 599.662 84.808C601.486 86.824 603.598 88.408 605.998 89.56C608.398 90.616 610.99 91.144 613.774 91.144C616.558 91.144 619.15 90.616 621.55 89.56C623.95 88.408 626.014 86.824 627.742 84.808C629.566 82.792 630.958 80.392 631.918 77.608C632.974 74.824 633.502 71.752 633.502 68.392C633.502 65.128 632.974 62.104 631.918 59.32C630.958 56.536 629.566 54.136 627.742 52.12C626.014 50.104 623.95 48.568 621.55 47.512C619.15 46.36 616.558 45.784 613.774 45.784C610.99 45.784 608.398 46.36 605.998 47.512C603.598 48.664 601.486 50.248 599.662 52.264C597.934 54.28 596.542 56.68 595.486 59.464C594.526 62.248 594.046 65.272 594.046 68.536Z" stroke="white" stroke-width="2"/>
<path d="M736.382 106.12H717.086V63.784C717.086 57.736 716.03 53.32 713.918 50.536C711.806 47.752 708.878 46.36 705.134 46.36C703.214 46.36 701.246 46.744 699.23 47.512C697.214 48.28 695.294 49.384 693.47 50.824C691.742 52.168 690.158 53.8 688.718 55.72C687.278 57.64 686.222 59.752 685.55 62.056V106.12H666.254V30.664H683.678V44.632C686.462 39.832 690.494 36.088 695.774 33.4C701.054 30.712 707.006 29.368 713.63 29.368C718.334 29.368 722.174 30.232 725.15 31.96C728.126 33.688 730.43 35.944 732.062 38.728C733.694 41.512 734.798 44.68 735.374 48.232C736.046 51.784 736.382 55.384 736.382 59.032V106.12Z" stroke="white" stroke-width="2"/>
</svg>
